X:7
T:7 Eja mater fons amoris
T:Alto solo
M:3/8
L:1/8
%%maxshrink 0.7
%%staves a | {1 2 3}
Q:"Andantino"
K:Cm
V:a name=Alt dyn=up
z3|z3|z3|z3|z3|z3|z3|
V:1 name="Str.\nBc."
wgwewd|c/=B/c2|(d/f/e)wd|g/e/{d}c2|(d/f/e)d|(c_BA-|A)G^F|
V:2
x3|x3|x3|x3|x3|!dolce!x3|x3|
V:3
z3|CA,G,|F,G,F,|E,A,G,|F,G,F,|E,D,C,|D,2C,|
% (27)
V:a		% M8
z3|z3|z3|z3|z3|z3|G (ED)|
w:E-ja_
V:1
G=f2|we/wg/w=B/wd/wc|(AG=B,)|we/wg/w=B/wd/wc|(AG=B,)|C2z|ged|
V:2
x3|!forte!x3|!dolce!x3|!forte!x3|x3|x3|!dolce!x3|
V:3
=B,,=A,,G,,|C,D,E,|F,G,G,,|C,D,E,|F,G,G,,|C,2z|z3|
V:a		% M15
C/=B,/{B,}C2|(D/F/E) D|G/E/{D}C2|(D/F/E) D|(3(E/D/C/) Cz|(BG) F|
w:ma -ter fons__ a-mo -ris, fons__ a-mo --ris, me_ sen-
V:1
c/=B/c2|(d/f/e)wd|g/e/{d}c2|(d/f/e)d|(3(e/d/c/) cz|bgf|
V:2
x3|x3|x3|x3|x3|x3|
V:3
CA,G,|F,G,F,|E,A,G,|F,G,G,|C,/C/_B,/A,/G,/F,/|E,2z|
V:a		% M21
E/D/E2|(F/A/G) F|B/G/{F}E2|(F/A/G) F|(3(G/F/E/) Ez|!dolce!B3|_d3|
w:ti -re vim__ do-lo -ris, vim__ do-lo --ris, fac, ut
V:1
e/d/e2|(f/a/g) f|b/g/{f}e2|(f/a/g) f|(3(g/f/e/) wez|B3|[B_d]3|
V:2
x3|x3|x3|x3|x3|!dolce!x3|x3|
V:3
ECB,|A,B,A,|G,CB,|A,B,B,,|E,G,B,|zE,E,|z=E,E,|
V:a		% M28
!forte!c/B/c2|(_dc) =E|F3|(_dc) =E|F2z|z3|
w:te -cum lu -ge-am, lu -ge-am.
V:1
wc/wa/w=e/wg/wf|(_dc=E)|wF/wa/w=e/wg/wf|(_dc=E)|wc'wawg|f/=e/f2|
V:2
!forte!x3|!dolce!x3|!forte!x3|!dolce!x3|!forte!x3|x3|
V:3
F,G,A,|B,CC,|F,G,A,|B,CC,|F,2z|F,_D,C,|
% (28)
V:a		% M34
z3|z3|z3|z3|z3|z3|
V:1
(g/b/a)wg|c'/a/{g}f2|(g/b/a)wg|wa/wf/w=e/wg/wf/wc/|(_dc=E)|FCA,|
V:2
x3|x3|x3|x3|x3|x3|
V:3
B,,C,B,,|A,,_D,C,|B,,C,C,|F,G,A,|B,CC,|F,,2z|
V:a		% M40
c AG|F/=E/{E}F2|(G/B/A) G|c/A/{G}F2|(G/B/A) G|(3(A/G/F/) Fz|
w:E-ja_ ma -ter, fons__ a-mo -ris, fons__ a-mo --ris,
V:1
c'ag|f/=e/f2|(g/b/a)wg|c'/a/{g}f2|(g/b/a)g|wa/wc'/w=e/wg/wf|
V:2
!dolce!x3|x3|x3|x3|x3|!forte!x3|
V:3
z3|F,_D,C,|B,,C,B,,|A,,_D,C,|B,,C,C,|F,G,A,|
V:a		% M46
(AG) F|(ED) C|(ed) c|(3(=B/=A/G/) Gz|G3|G3|G3|
w:me_ sen-ti -re vim_ do-lo --ris, fac, ut te-
V:1
(AGF)|w_E/wg/w=B/wd/wc|EDC|=B,/=A,/G,z|g3-|g3-|g3-|
V:2
!dolce!x3|!forte!x3|x3|x3|!dolce!z(e=B|c_A^F|G)(e=B|
V:3
=B,,3|C,D,E,|^F,,3|G,,G,=F,|z(E,=B,,|C,_A,,^F,,|G,,)(E,=B,,|
V:a		% M53
G3|G3|G3|G2z|dF2|TE/D/ Ez|(AG) =B,|C2z|
w:cum lu-ge-am, fac, ut te -cum lu -ge-am.
V:1
g3-|g3-|g3-|g2z|d/=B/F2|wE/wg/w=B/wd/wc|(AG=B,)|C2z|
V:2
c_A^F|G)(e=B|c_A^F|G2)z|x3|x3|x3|x3|
V:3
C,_A,,^F,,|G,,)(E,=B,,|C,_A,,^F,,|G,,)=B,,D,|G,=B,,G,,|C,D,E,|F,G,G,,|C,2z|
% (29)
V:a		% M61
!forte!Tc3|G3|(ED) C|(!dolce!cA) G|^FG2|(BG) =F|=EF2|
w:E-ja ma -ter, fons_ a-mo-ris, me_ sen-ti-re
V:1
Tc3|TG3|EDC|(cAG)|w^FwG2|(BG=F)|=EF2|
V:2
!forte!x3|x3|x3|!dolce!x3|x3|x3|x3|
V:3
C3|G,3|E,D,C,|(CA,G,)|^F,G,2|(B,G,=F,)|=E,F,2|
V:a		% M68
(_AF) _E|DE2|G3|c3|[Q:"Largo"](=B/=A/)HG2|G3|G3|
w:vim_ do-lo-ris, vim do-lo -ris, fac, ut
V:1
(_AF_E)|DE2|G3|c3|[Q:"Largo"](=B/=A/ HG)Hz|g3-|g3-|
V:2
x3|x3|x3|x3|x3|!dolcea!z(e=B|c_A^F|
V:3
(_A,F,_E,)|D,E,2|E,D,C,|_A,G,^F,|HG,3|z(E,=B,,|C,_A,,^F,,|
V:a		% M75
G3|G3|G3|G3|G2z|(d=B) F|F2E|
w:te-cum lu-ge-am, fac,_ ut te-cum
V:1
g3-|g3-|g3-|g3-|g2z|(d=B=F)|wF/wf/w=B/wd/wc|
V:2
G)(e=B|c_A^F|G)(e=B|c_A^F|G2)z|x3|!forte!x3|
V:3
G,,)(E,=B,,|C,_A,,^F,,|G,,)(E,=B,,|C,_A,,^F,,|G,,)=B,,D,|G,D,=B,,|C,D,E,|
V:a		% M82
(!dolce!AG) =B,|C2z|(!dolcea!AG) =B,|C2z|z3|z3|z3|
w:lu -ge-am, lu -ge-am.
V:1
(AG=B,)|wC/wg/w=B/wd/wc|(AG=B,)|wgwewd|c/=B/c2|(d/f/e)d|g/e/{d}c2|
V:2
!dolce!x3|!forte!x3|!dolce!x3|x3|x3|x3|x3|
V:3
(F,G,)G,,|wC,wD,wE,|(F,G,)G,,|C,2z|CA,G,|F,G,F,|E,A,G,|
% (30)
V:a		% M89
z3|z3|z3|z3|z3|Hz3|]
V:1
(d/f/e)d|we/wg/w=B/wd/wc|(AG=B,)|we/wg/w=B/wd/wc|(AG=B,)|HC3|]
V:2
x3|!forte!x3|!dolce!x3|!forte!x3|!dolce!x3|x3|]
V:3
(F,G,)G,,|wC,wD,wE,|(F,G,)G,,|wC,wD,wE,|(F,G,)G,,|HC,3|]

